X: 6616
T: Cavan Potholes
R: reel
M: 4/4
K: Dmajor
e- edBA|G2Bd BAGB|AD~D2 ADFD|EFGE AGFA|GABd edBA|
G2Bd BAGB|A2de dABd|e2~e2 defd|e2BA (3Bcd ef|
gfef gfeg|fedB ABdf|eBBA BedB|ABdB ADFD|
E2Bd BAGB|AGFE DEFD|EFGE FEDF|~E3:|
|:A (3Bcd ef|g3a gfeg|fedB ABdf|eBBA BdeB|BAGA (3Bcd ef|
~g3a gfeg|(3fed ag fefd|ebaf g2Bg|fde2 (3Bcd ef|
gaba gfeg|fgfe de (3fed|egfa gedg|(3efg fd BdAF|
G2Bd BAGB|AGFE DEFD|EFGE AGFG|~E3:|

